X: 31664
T: Parnell's March
R: jig
M: 6/8
K: Gmajor
dc|:BGD BGD|d3 d2 c|BGD BGD|ded d2c|
B3 GBd|edc BAG|A^GA d^cd|A^GA d^cd|
BGD BGD|d3 dcB|c2B c2e|g3 gfe|
dBG DGB|c2 A F2 G|AGG GAF|1 G3 d2 c:|2 G3 g2=f||
|:e2 cc2 B|c2gf2 e|d3 ded|B3- B2 c|
dcd d^cd|edc BAG|A^GA d^cd|A^GA d^cd|
BGD BGD|d3 dcB|c2 B c2 e|g3 gfe|
d2B GAB|c2 A F2 G|AGG GAF|1 G3 g2 =f:|2 G3 d2 c||

